icon-themes/breeze_svg/cmd/lc_tablemodefixprop.svg

<svg viewBox="0 0 24 24" xmlns="http://www.w3.org/2000/svg"><path d="m4 13v7h1v-3h3v-1h-3v-3zm6.5 0a1.5 1.5 0 0 0 -1.5 1.5 1.5 1.5 0 0 0 1.5 1.5 1.5 1.5 0 0 0 1.5-1.5 1.5 1.5 0 0 0 -1.5-1.5zm3.828125 0-5.328125 6.402344.671875.597656 5.328125-6.402344zm4.671875 0v3h-3v1h3v3h1v-7zm-8.5 1a.5.5 0 0 1 .5.5.5.5 0 0 1 -.5.5.5.5 0 0 1 -.5-.5.5.5 0 0 1 .5-.5zm3 3a1.5 1.5 0 0 0 -1.5 1.5 1.5 1.5 0 0 0 1.5 1.5 1.5 1.5 0 0 0 1.5-1.5 1.5 1.5 0 0 0 -1.5-1.5zm0 1a.5.5 0 0 1 .5.5.5.5 0 0 1 -.5.5.5.5 0 0 1 -.5-.5.5.5 0 0 1 .5-.5z" fill="#1d99f3"/><path d="m4 4v8h1v-1h4v1h1v-1h4v1h1v-1h4v1h1v-8zm1 1h4v2h-4zm5 0h4v2h-4zm5 0h4v2h-4zm-10 3h4v2h-4zm5 0h4v2h-4zm5 0h4v2h-4z" fill="#4d4d4d"/></svg>

<svg viewBox="0 0 24 24" xmlns="http://www.w3.org/2000/svg">
  <path
     style="fill:#1d99f3"
     d="M 4 13 L 4 20 L 5 20 L 5 17 L 8 17 L 8 16 L 5 16 L 5 13 L 4 13 z M 10.5 13 A 1.5 1.5 0 0 0 9 14.5 A 1.5 1.5 0 0 0 10.5 16 A 1.5 1.5 0 0 0 12 14.5 A 1.5 1.5 0 0 0 10.5 13 z M 14.328125 13 L 9 19.402344 L 9.671875 20 L 15 13.597656 L 14.328125 13 z M 19 13 L 19 16 L 16 16 L 16 17 L 19 17 L 19 20 L 20 20 L 20 13 L 19 13 z M 10.5 14 A 0.5 0.5 0 0 1 11 14.5 A 0.5 0.5 0 0 1 10.5 15 A 0.5 0.5 0 0 1 10 14.5 A 0.5 0.5 0 0 1 10.5 14 z M 13.5 17 A 1.5 1.5 0 0 0 12 18.5 A 1.5 1.5 0 0 0 13.5 20 A 1.5 1.5 0 0 0 15 18.5 A 1.5 1.5 0 0 0 13.5 17 z M 13.5 18 A 0.5 0.5 0 0 1 14 18.5 A 0.5 0.5 0 0 1 13.5 19 A 0.5 0.5 0 0 1 13 18.5 A 0.5 0.5 0 0 1 13.5 18 z "
     />
  <path
     style="fill:#4d4d4d"
     d="m 4,4 v 8 h 1 v -1 h 4 v 1 h 1 v -1 h 4 v 1 h 1 v -1 h 4 v 1 h 1 V 4 Z M 5,5 H 9 V 7 H 5 Z m 5,0 h 4 v 2 h -4 z m 5,0 h 4 V 7 H 15 Z M 5,8 h 4 v 2 H 5 Z m 5,0 h 4 v 2 h -4 z m 5,0 h 4 v 2 h -4 z"
     />
</svg>
